src/assets/icons/pul-icon-toggle.collapsed.svg

<!-- Generated by IcoMoon.io -->
<svg version="1.1" xmlns="http://www.w3.org/2000/svg" width="16" height="16" viewBox="0 0 16 16">
<title>toggle.collapsed</title>
<path d="M3.667 8h3.667v3.667c0 0.184 0.149 0.333 0.333 0.333s0.333-0.149 0.333-0.333v-3.667h3.667c0.184 0 0.333-0.149 0.333-0.333s-0.149-0.333-0.333-0.333h-3.667v-3.667c0-0.184-0.149-0.333-0.333-0.333s-0.333 0.149-0.333 0.333v3.667h-3.667c-0.184 0-0.333 0.149-0.333 0.333s0.149 0.333 0.333 0.333zM15 0h-14.667c-0.184 0-0.333 0.149-0.333 0.333v14.667c0 0.184 0.149 0.333 0.333 0.333h14.667c0.184 0 0.333-0.149 0.333-0.333v-14.667c0-0.184-0.149-0.333-0.333-0.333zM14.667 14.667h-14v-14h14v14z"></path>
</svg>

<svg xmlns="http://www.w3.org/2000/svg" viewBox="0 0 16 16">
    <path d="M3.667 8h3.667v3.667a.333.333 0 1 0 .666 0V8h3.667a.333.333 0 1 0 0-.666H8V3.667a.333.333 0 1 0-.666 0v3.667H3.667a.333.333 0 1 0 0 .666zM15 0H.333A.333.333 0 0 0 0 .333V15c0 .184.149.333.333.333H15a.333.333 0 0 0 .333-.333V.333A.333.333 0 0 0 15 0zm-.333 14.667h-14v-14h14v14z"/>
</svg>
